X: 13525
T: Flowers Of Spring, The
R: jig
M: 6/8
K: Edorian
|:ABA ABd|edB G2 B|dBA GBA|GBd edg|
ABA ABd|edB G2 B|dBB gBB|1 ABA A2 G:|2 ABA A2 d||
|:~E3 EFA|BAF D2 F|AFE DED|DFA BAd|
~E3 EFA|BAF D2 F|AFF dFF|1 EFE E2 D:|2 EFE E2 A||
|:Bee ede|~f3 edB|BdB DFA|~B3 dBA|
Bee ede|~f3 edB|BdB DFA|1 EFE E2 A:|2 EFE E2 D||

